apps/reserve.mento.org/public/protocols/mento.svg

<svg xmlns="http://www.w3.org/2000/svg" width="40" height="40" viewBox="0 0 63 63" fill="none"><circle cx="31.4336" cy="31.5796" r="31.1016" fill="#7005fc"/><path fill="#f7f6fa" d="M41.162 41.2452V51.5796H26.1765C17.7169 51.5796 11.4326 45.5006 11.4326 36.9899L11.4326 21.9139H21.705V34.5583C21.705 38.8136 24.3637 41.2452 28.5935 41.2452H41.162ZM21.705 21.9139V11.5796L36.6905 11.5796C45.1501 11.5796 51.4344 17.6586 51.4344 26.1693V41.2452H41.162V28.6009C41.162 24.3455 38.5033 21.9139 34.2735 21.9139H21.705Z"/></svg>

<svg xmlns="http://www.w3.org/2000/svg" width="40" height="40" fill="none" viewBox="0 0 63 63"><circle cx="31.434" cy="31.58" r="31.102" fill="#7005fc"/><path fill="#f7f6fa" d="M41.162 41.245V51.58H26.177c-8.46 0-14.744-6.08-14.744-14.59V21.914h10.272v12.644c0 4.256 2.659 6.687 6.889 6.687zM21.705 21.914V11.58h14.986c8.46 0 14.743 6.079 14.743 14.59v15.075H41.162V28.601c0-4.255-2.659-6.687-6.889-6.687z"/></svg>
